X: 1
T: Tu Scendi Dalle Stelle    [G]
C: Alfonso Maria de' Liguori 1744
M: 6/8
L: 1/8
K: G
"A"[|] [dB] |\
"G"[d2B2][ec] [d2B2][cA] | "G"[cA][B2G2]- [B2G2][AF] |\
"G"[BG][cA][dB] [dB][cA][BG] | "D7"[A3F3]- [A2F2][BG] |
w: 1.~Tu scen-di dal-le stel-le,* o Re* del Cie-** lo,* e
w: 2.~A te che sei del mon-do,* il cre-*a-to-**re,* Man-
  "D7"[A2F2][BG] [c2A2][BG] | "D7"[A3F3] "C"[e2c2][ec] |\
  "D7"[dB][ec][dB] [cA][BG][AF] | "G"[B3G3]- [B2G2][BG] |
w: vie-ni~in u-na grot-ta, al fred-*do~al ge-**lo,* e
w: ca-no pan-ni~e fuoc-co, o mi-o Si-gno-**re.*
  "D7"[A2F2][BG] [c2A2][BG] | "D7"[A3F3] "C"[e2c2][ec] |\
  "D7"[dB][ec][dB] [cA][BG][AF] | "G"[G3D3] |]
w: vie-ni~in u-na grot-ta, al fred-*do~al ge-**lo.
w: Manca-no pan-ni~e fuoc-co, o mi-o Si-gno-**re.
"B"[|] [B2G2][dB] |\
  "D7"[c2A2][cA] [AF][BG][cA] | "G"[B2G2][BG] [BG][cA][dB] |\
  "D7"[c2A2][cA] [AF][BG][cA] | "G"[B3G3]- [B2G2] |]
w: O Bam-bi-no mi-o Di-vi-no i-o ti ve-do qui a tre-mar*
w: Ca-ro~e-let-*to Par-go-let-to, quan-*to ques-ta po-*ver-t\`a,*
"C"[|] [BG] |\
  "G"[BG][AF][BG] [dB][cA][BG] | "D7"[A3F3]- [A2F2]"D"|| [BG] |\
  "D7"[A2F2][BG] [c2A2][BG] | "D7"[A3F3] "C"[e3c3] |\
  "D7"[dB][ec][dB] [cA][BG][AF] |
w: o Di-o Be-a-** to* ah cuan-to ti cos-t\`o l'a-ver-*mi~a-ma-**
w: Piu m'in-*na-mo-**ra* giac-che ti fe-ce~a-mor Po-ve-*ro~an-cor-**
  "G"[B3G3]- [B2G2][BG] | "D7"[A2F2][BG] [c2A2][BG] |\
  "D7"[A3F3] "C"[e3c3] | "D7"[dB][ec][dB] [cA][BG][AF] | "G"[G3D3] z2 |]
w: to* ah cuan-to ti cos-to l'a-ver-*mi~a-ma-**to.
w: ra,* giac-che ti fe-ce~a-mor Po-ve-*ro~an-cor-**ra.
% %text http://www.youtube.com/watch?v=AfZkXntKY8k Luciano Pavarotti
